!! 00009] TT[TB
!! Zhongguo changpian 1959; 3-6950Z (*650704)  (J 5613)
!!!OTL: Dang de jia yu hao
!!!ARE: Neimeng
!! Ethnic Group: Menggu
!! MM, Komposition vorhanden
!!!SCT: C0525
!!!YEM: Copyright 1995, estate of Helmut Schaffrath.
**kern
*ICvox
*Ivox
*M2/4
*k[]
*C:
{8a
4a
8dd
=1
8a
8g
4a
=2
8dd
4cc
8dd
=3
4ee
4ee}
=4
{8ee
8a
8a
8ee
=5
8.a
16g
8e
8a
=6
8g
4e
8d
=7
2e}
=8
{8dd
4cc
8dd
=9
4ee
4ee
=10
8ee
4a
8ee
=11
8a
8g
4e}
=12
{8d
8c
8c
8a
=13
8.g
16e
8e
8d
=14
2A
=15
8a
4.r}
==
!!!AGN: NN
!! KEIN VOLKSLIED
!!!ONB: ESAC (Essen Associative Code) Database: CHINA
!!!AMT: simple duple
!!!AIN: vox
!!!EED: Helmut Schaffrath
!!!EEV: 1.0
*-
